public/logo.svg

<svg width="120" height="44" viewBox="0 0 120 44" fill="none" xmlns="http://www.w3.org/2000/svg">
<path d="M48.9419 22.3008C48.1606 22.9648 47.2896 23.4766 46.3286 23.8359C45.3677 24.1875 44.3677 24.3633 43.3286 24.3633C42.5317 24.3633 41.7622 24.2578 41.02 24.0469C40.2856 23.8438 39.5981 23.5547 38.9575 23.1797C38.3169 22.7969 37.731 22.3438 37.1997 21.8203C36.6685 21.2891 36.2153 20.7031 35.8403 20.0625C35.4653 19.4141 35.1724 18.7188 34.9614 17.9766C34.7583 17.2344 34.6567 16.4648 34.6567 15.668C34.6567 14.8711 34.7583 14.1055 34.9614 13.3711C35.1724 12.6367 35.4653 11.9492 35.8403 11.3086C36.2153 10.6602 36.6685 10.0742 37.1997 9.55078C37.731 9.01953 38.3169 8.56641 38.9575 8.19141C39.5981 7.81641 40.2856 7.52734 41.02 7.32422C41.7622 7.11328 42.5317 7.00781 43.3286 7.00781C44.3677 7.00781 45.3677 7.1875 46.3286 7.54688C47.2896 7.89844 48.1606 8.40625 48.9419 9.07031L47.1841 12C46.6763 11.4844 46.0903 11.082 45.4263 10.793C44.7622 10.4961 44.063 10.3477 43.3286 10.3477C42.5942 10.3477 41.9028 10.4883 41.2544 10.7695C40.6138 11.0508 40.0513 11.4336 39.5669 11.918C39.0825 12.3945 38.6997 12.957 38.4185 13.6055C38.1372 14.2461 37.9966 14.9336 37.9966 15.668C37.9966 16.4102 38.1372 17.1055 38.4185 17.7539C38.6997 18.4023 39.0825 18.9688 39.5669 19.4531C40.0513 19.9375 40.6138 20.3203 41.2544 20.6016C41.9028 20.8828 42.5942 21.0234 43.3286 21.0234C43.7505 21.0234 44.1606 20.9727 44.5591 20.8711C44.9575 20.7695 45.3364 20.6289 45.6958 20.4492V15.668H48.9419V22.3008ZM61.4224 17.2852V13.9219C61.4224 13.4609 61.3325 13.0273 61.1528 12.6211C60.981 12.207 60.7427 11.8477 60.438 11.543C60.1333 11.2383 59.7739 11 59.3599 10.8281C58.9536 10.6484 58.52 10.5586 58.0591 10.5586C57.5981 10.5586 57.1606 10.6484 56.7466 10.8281C56.3403 11 55.9849 11.2383 55.6802 11.543C55.3755 11.8477 55.1333 12.207 54.9536 12.6211C54.7817 13.0273 54.6958 13.4609 54.6958 13.9219V17.2852H61.4224ZM64.7856 24H61.4224V20.6367H54.6958V24H51.3442V13.9219C51.3442 12.9922 51.52 12.1211 51.8716 11.3086C52.2231 10.4883 52.6997 9.77344 53.3013 9.16406C53.9106 8.55469 54.6216 8.07422 55.4341 7.72266C56.2544 7.37109 57.1294 7.19531 58.0591 7.19531C58.9888 7.19531 59.8599 7.37109 60.6724 7.72266C61.4927 8.07422 62.2075 8.55469 62.8169 9.16406C63.4263 9.77344 63.9067 10.4883 64.2583 11.3086C64.6099 12.1211 64.7856 12.9922 64.7856 13.9219V24ZM84.3794 24H81.0278V12C81.0278 11.7656 80.981 11.5469 80.8872 11.3438C80.8013 11.1406 80.6802 10.9648 80.5239 10.8164C80.3755 10.6602 80.1997 10.5391 79.9966 10.4531C79.7935 10.3672 79.5747 10.3242 79.3403 10.3242C79.106 10.3242 78.8872 10.3672 78.6841 10.4531C78.481 10.5391 78.3013 10.6602 78.145 10.8164C77.9966 10.9648 77.8794 11.1406 77.7935 11.3438C77.7075 11.5469 77.6646 11.7656 77.6646 12V24H74.3013V12C74.3013 11.7656 74.2583 11.5469 74.1724 11.3438C74.0864 11.1406 73.9653 10.9648 73.8091 10.8164C73.6606 10.6602 73.4849 10.5391 73.2817 10.4531C73.0786 10.3672 72.8599 10.3242 72.6255 10.3242C72.3911 10.3242 72.1724 10.3672 71.9692 10.4531C71.7661 10.5391 71.5864 10.6602 71.4302 10.8164C71.2817 10.9648 71.1646 11.1406 71.0786 11.3438C70.9927 11.5469 70.9497 11.7656 70.9497 12V24H67.5864V12C67.5864 11.3047 67.7153 10.6523 67.9731 10.043C68.2388 9.42578 68.5981 8.89062 69.0513 8.4375C69.5122 7.97656 70.0474 7.61719 70.6567 7.35938C71.2739 7.09375 71.9302 6.96094 72.6255 6.96094C73.2505 6.96094 73.8521 7.07422 74.4302 7.30078C75.0083 7.51953 75.5278 7.83984 75.9888 8.26172C76.4497 7.83984 76.9653 7.51953 77.5356 7.30078C78.1138 7.07422 78.7153 6.96094 79.3403 6.96094C80.0356 6.96094 80.688 7.09375 81.2974 7.35938C81.9146 7.61719 82.4497 7.97656 82.9028 8.4375C83.3638 8.89062 83.7231 9.42578 83.981 10.043C84.2466 10.6523 84.3794 11.3047 84.3794 12V24ZM100.833 18.9609C100.833 19.6562 100.7 20.3086 100.434 20.918C100.168 21.5273 99.8052 22.0625 99.3442 22.5234C98.8911 22.9766 98.3599 23.3359 97.7505 23.6016C97.1411 23.8672 96.4888 24 95.7935 24H87.3911V7.19531H95.7935C96.4888 7.19531 97.1411 7.32812 97.7505 7.59375C98.3599 7.85938 98.8911 8.22266 99.3442 8.68359C99.8052 9.13672 100.168 9.66797 100.434 10.2773C100.7 10.8867 100.833 11.5391 100.833 12.2344C100.833 12.5469 100.79 12.8672 100.704 13.1953C100.618 13.5234 100.497 13.8398 100.34 14.1445C100.184 14.4492 99.9966 14.7266 99.7778 14.9766C99.5591 15.2266 99.3169 15.4336 99.0513 15.5977C99.3247 15.7461 99.5708 15.9492 99.7896 16.207C100.008 16.457 100.196 16.7344 100.352 17.0391C100.508 17.3438 100.625 17.6641 100.704 18C100.79 18.3281 100.833 18.6484 100.833 18.9609ZM90.7544 20.6367H95.7935C96.0278 20.6367 96.2466 20.5938 96.4497 20.5078C96.6528 20.4219 96.8286 20.3047 96.9771 20.1562C97.1333 20 97.2544 19.8203 97.3403 19.6172C97.4263 19.4141 97.4692 19.1953 97.4692 18.9609C97.4692 18.7266 97.4263 18.5078 97.3403 18.3047C97.2544 18.1016 97.1333 17.9258 96.9771 17.7773C96.8286 17.6211 96.6528 17.5 96.4497 17.4141C96.2466 17.3281 96.0278 17.2852 95.7935 17.2852H90.7544V20.6367ZM90.7544 13.9219H95.7935C96.0278 13.9219 96.2466 13.8789 96.4497 13.793C96.6528 13.707 96.8286 13.5898 96.9771 13.4414C97.1333 13.2852 97.2544 13.1055 97.3403 12.9023C97.4263 12.6914 97.4692 12.4688 97.4692 12.2344C97.4692 12 97.4263 11.7812 97.3403 11.5781C97.2544 11.375 97.1333 11.1992 96.9771 11.0508C96.8286 10.8945 96.6528 10.7734 96.4497 10.6875C96.2466 10.6016 96.0278 10.5586 95.7935 10.5586H90.7544V13.9219ZM113.266 17.2852V13.9219C113.266 13.4609 113.176 13.0273 112.997 12.6211C112.825 12.207 112.586 11.8477 112.282 11.543C111.977 11.2383 111.618 11 111.204 10.8281C110.797 10.6484 110.364 10.5586 109.903 10.5586C109.442 10.5586 109.004 10.6484 108.59 10.8281C108.184 11 107.829 11.2383 107.524 11.543C107.219 11.8477 106.977 12.207 106.797 12.6211C106.625 13.0273 106.54 13.4609 106.54 13.9219V17.2852H113.266ZM116.629 24H113.266V20.6367H106.54V24H103.188V13.9219C103.188 12.9922 103.364 12.1211 103.715 11.3086C104.067 10.4883 104.543 9.77344 105.145 9.16406C105.754 8.55469 106.465 8.07422 107.278 7.72266C108.098 7.37109 108.973 7.19531 109.903 7.19531C110.833 7.19531 111.704 7.37109 112.516 7.72266C113.336 8.07422 114.051 8.55469 114.661 9.16406C115.27 9.77344 115.75 10.4883 116.102 11.3086C116.454 12.1211 116.629 12.9922 116.629 13.9219V24Z" fill="white"/>
<path d="M3.49587 31.2051C3.49587 31.2051 7.24024 27.0749 13.1056 27.13C13.1056 27.13 12.8055 25.0375 13.5115 23.3934C13.5115 23.3934 6.80817 21.6654 6.50295 14.0166C6.50295 14.0166 -1.14722 20.4719 3.49587 31.2051Z" fill="url(#paint0_linear_638_1116)"/>
<path d="M4.52832 32.7907C7.64542 37.7586 13.502 39.3278 13.502 39.3278L13.5137 39.1971C12.8489 35.5076 16.148 31.5183 16.148 31.5183C14.7509 30.6491 13.83 28.9644 13.83 28.9644C13.7469 28.9675 13.6802 28.9618 13.6134 28.9561C8.13325 28.9693 4.52832 32.7907 4.52832 32.7907Z" fill="url(#paint1_linear_638_1116)"/>
<path d="M15.5101 39.7623C20.4435 40.6766 23.9384 38.6557 23.9384 38.6557C21.2597 36.4284 21.1228 32.8562 21.1228 32.8562C18.9607 32.9156 17.8942 32.3867 17.8942 32.3867C14.6631 35.4273 15.5101 39.7623 15.5101 39.7623Z" fill="url(#paint2_linear_638_1116)"/>
<path d="M24.9065 32.2161L23.0313 32.7653C23.0313 32.7653 23.027 35.4856 25.9407 37.7408C25.9407 37.7408 28.074 36.327 28.1982 36.0944C28.1982 36.0944 35.4298 34.2497 36.0003 25.2294C36.0003 25.2294 34.4224 25.2872 32.2456 26.4338L33.111 22.5254C33.111 22.5254 25.6221 24.8193 24.9065 32.2161Z" fill="url(#paint3_linear_638_1116)"/>
<path d="M22.6092 13.2843C22.6092 14.1084 21.927 14.7765 21.0854 14.7765C20.2438 14.7765 19.5615 14.1084 19.5615 13.2843C19.5615 12.4601 20.2438 11.792 21.0854 11.792C21.927 11.792 22.6092 12.4601 22.6092 13.2843Z" fill="url(#paint4_linear_638_1116)"/>
<path d="M24.9841 5.03441C23.8004 5.83516 22.5085 6.63173 21.1451 7.3006C19.7818 7.96948 18.3723 8.51788 16.9802 8.87017L13.9648 9.61581C13.2651 9.80432 12.5475 9.96089 11.8551 10.1247C11.1302 10.306 9.54409 10.8038 8.39536 12.0838C8.39536 12.0838 7.3188 17.4333 12.164 20.8313C12.164 20.8313 14.0292 22.1964 17.4354 21.8844C18.985 21.7381 20.4644 21.2767 21.8173 20.5512C22.9167 19.9408 24.4695 19.0044 25.454 17.9992C25.5414 17.8901 25.6376 17.797 25.7339 17.7039C25.8064 17.6442 25.9027 17.5511 26.0063 17.4333L32.1846 11.0908C31.807 10.5671 31.0623 10.4478 30.5275 10.8175L27.1484 13.1483C27.5109 10.8791 25.8196 5.35403 25.8196 5.35403C25.7168 5.05645 25.4482 4.99299 25.2406 5.00059C25.0908 4.99793 24.9841 5.03441 24.9841 5.03441ZM18.1045 13.2677C18.0928 11.6555 19.4403 10.352 21.0865 10.3406C22.7254 10.3539 24.0729 11.6646 24.0593 13.2696C24.0709 14.8817 22.7324 16.2012 21.0772 16.1966C19.4473 16.1993 18.0998 14.8885 18.1045 13.2677Z" fill="url(#paint5_linear_638_1116)"/>
<path d="M22.6092 13.2833C22.6092 14.1075 21.927 14.7756 21.0854 14.7756C20.2438 14.7756 19.5615 14.1075 19.5615 13.2833C19.5615 12.4591 20.2438 11.791 21.0854 11.791C21.927 11.791 22.6092 12.4591 22.6092 13.2833Z" fill="url(#paint6_linear_638_1116)"/>
<path d="M22.6092 13.2833C22.6092 14.1075 21.927 14.7756 21.0854 14.7756C20.2438 14.7756 19.5615 14.1075 19.5615 13.2833C19.5615 12.4591 20.2438 11.791 21.0854 11.791C21.927 11.791 22.6092 12.4591 22.6092 13.2833Z" fill="url(#paint7_linear_638_1116)"/>
<rect x="84" y="27" width="34" height="13" rx="6.5" fill="#05FFA5"/>
<path d="M90.1289 31.3994V34.2021H91.5303C91.7223 34.2021 91.903 34.1663 92.0723 34.0947C92.2415 34.0199 92.3896 33.9189 92.5166 33.792C92.6436 33.665 92.7428 33.5169 92.8145 33.3477C92.8893 33.1751 92.9268 32.9928 92.9268 32.8008C92.9268 32.6087 92.8893 32.4281 92.8145 32.2588C92.7428 32.0863 92.6436 31.9365 92.5166 31.8096C92.3896 31.6826 92.2415 31.5833 92.0723 31.5117C91.903 31.4368 91.7223 31.3994 91.5303 31.3994H90.1289ZM90.1289 37H88.7275V29.998H91.5303C91.7874 29.998 92.0348 30.0322 92.2725 30.1006C92.5101 30.1657 92.7314 30.2601 92.9365 30.3838C93.1449 30.5042 93.3337 30.6507 93.5029 30.8232C93.6755 30.9925 93.8219 31.1813 93.9424 31.3896C94.0661 31.598 94.1605 31.821 94.2256 32.0586C94.2939 32.2962 94.3281 32.5436 94.3281 32.8008C94.3281 33.1849 94.2549 33.5479 94.1084 33.8896C93.9619 34.2282 93.7617 34.5244 93.5078 34.7783C93.2539 35.0322 92.9561 35.2324 92.6143 35.3789C92.2757 35.5254 91.9144 35.5986 91.5303 35.5986H90.1289V37ZM100.056 37H95.1533V29.998H96.5547V35.5986H100.056V37ZM104.909 34.2021V32.8008C104.909 32.6087 104.872 32.4281 104.797 32.2588C104.725 32.0863 104.626 31.9365 104.499 31.8096C104.372 31.6826 104.222 31.5833 104.05 31.5117C103.881 31.4368 103.7 31.3994 103.508 31.3994C103.316 31.3994 103.133 31.4368 102.961 31.5117C102.792 31.5833 102.644 31.6826 102.517 31.8096C102.39 31.9365 102.289 32.0863 102.214 32.2588C102.142 32.4281 102.106 32.6087 102.106 32.8008V34.2021H104.909ZM106.311 37H104.909V35.5986H102.106V37H100.71V32.8008C100.71 32.4134 100.783 32.0505 100.93 31.7119C101.076 31.3701 101.275 31.0723 101.525 30.8184C101.779 30.5645 102.076 30.3643 102.414 30.2178C102.756 30.0713 103.12 29.998 103.508 29.998C103.895 29.998 104.258 30.0713 104.597 30.2178C104.938 30.3643 105.236 30.5645 105.49 30.8184C105.744 31.0723 105.944 31.3701 106.091 31.7119C106.237 32.0505 106.311 32.4134 106.311 32.8008V37ZM110.598 37H109.201V34.8076C108.892 34.7295 108.607 34.6042 108.347 34.4316C108.09 34.2591 107.868 34.054 107.683 33.8164C107.497 33.5755 107.352 33.3102 107.248 33.0205C107.147 32.7275 107.097 32.4199 107.097 32.0977V29.998H108.498V32.0977C108.498 32.2897 108.534 32.472 108.605 32.6445C108.68 32.8138 108.781 32.9619 108.908 33.0889C109.035 33.2158 109.183 33.3167 109.353 33.3916C109.525 33.4632 109.707 33.499 109.899 33.499C110.091 33.499 110.272 33.4632 110.441 33.3916C110.614 33.3167 110.764 33.2158 110.891 33.0889C111.018 32.9619 111.117 32.8138 111.188 32.6445C111.263 32.472 111.301 32.2897 111.301 32.0977V29.998H112.697V32.0977C112.697 32.4199 112.645 32.7275 112.541 33.0205C112.44 33.3102 112.297 33.5755 112.111 33.8164C111.926 34.054 111.704 34.2591 111.447 34.4316C111.19 34.6042 110.907 34.7295 110.598 34.8076V37Z" fill="black"/>
<defs>
<linearGradient id="paint0_linear_638_1116" x1="14.7589" y1="38.4885" x2="6.11725" y2="22.3742" gradientUnits="userSpaceOnUse">
<stop stop-color="#FF1653"/>
<stop offset="1" stop-color="#FF7A53"/>
</linearGradient>
<linearGradient id="paint1_linear_638_1116" x1="14.0822" y1="38.8496" x2="5.44057" y2="22.7353" gradientUnits="userSpaceOnUse">
<stop stop-color="#FF1653"/>
<stop offset="1" stop-color="#FF7A53"/>
</linearGradient>
<linearGradient id="paint2_linear_638_1116" x1="18.4369" y1="36.5161" x2="9.7953" y2="20.4018" gradientUnits="userSpaceOnUse">
<stop stop-color="#FF1653"/>
<stop offset="1" stop-color="#FF7A53"/>
</linearGradient>
<linearGradient id="paint3_linear_638_1116" x1="29.9524" y1="30.3391" x2="21.3108" y2="14.2248" gradientUnits="userSpaceOnUse">
<stop stop-color="#FF1653"/>
<stop offset="1" stop-color="#FF7A53"/>
</linearGradient>
<linearGradient id="paint4_linear_638_1116" x1="30.4723" y1="30.0638" x2="21.8307" y2="13.9495" gradientUnits="userSpaceOnUse">
<stop stop-color="#FF1653"/>
<stop offset="1" stop-color="#FF7A53"/>
</linearGradient>
<linearGradient id="paint5_linear_638_1116" x1="29.7403" y1="30.4519" x2="21.0987" y2="14.3376" gradientUnits="userSpaceOnUse">
<stop stop-color="#FF1653"/>
<stop offset="1" stop-color="#FF7A53"/>
</linearGradient>
<linearGradient id="paint6_linear_638_1116" x1="30.4723" y1="30.0628" x2="21.8307" y2="13.9485" gradientUnits="userSpaceOnUse">
<stop stop-color="#FF1653"/>
<stop offset="1" stop-color="#FF7A53"/>
</linearGradient>
<linearGradient id="paint7_linear_638_1116" x1="30.4723" y1="30.0628" x2="21.8307" y2="13.9485" gradientUnits="userSpaceOnUse">
<stop stop-color="#FF1653"/>
<stop offset="1" stop-color="#FF7A53"/>
</linearGradient>
</defs>
</svg>

<svg width="120" height="44" xmlns="http://www.w3.org/2000/svg" xmlns:svg="http://www.w3.org/2000/svg">
 <defs>
  <linearGradient id="paint0_linear_638_1116" x1="1.11" x2="0.36" y1="1.42" y2="0.49">
   <stop stop-color="#FF1653"/>
   <stop offset="1" stop-color="#FF7A53"/>
  </linearGradient>
  <linearGradient id="paint1_linear_638_1116" x1="0.82" x2="0.08" y1="0.95" y2="-0.6">
   <stop stop-color="#FF1653"/>
   <stop offset="1" stop-color="#FF7A53"/>
  </linearGradient>
  <linearGradient id="paint2_linear_638_1116" x1="0.35" x2="-0.66" y1="0.54" y2="-1.58">
   <stop stop-color="#FF1653"/>
   <stop offset="1" stop-color="#FF7A53"/>
  </linearGradient>
  <linearGradient id="paint3_linear_638_1116" x1="0.53" x2="-0.13" y1="0.51" y2="-0.55">
   <stop stop-color="#FF1653"/>
   <stop offset="1" stop-color="#FF7A53"/>
  </linearGradient>
  <linearGradient id="paint4_linear_638_1116" x1="3.58" x2="0.74" y1="6.11" y2="0.72">
   <stop stop-color="#FF1653"/>
   <stop offset="1" stop-color="#FF7A53"/>
  </linearGradient>
  <linearGradient id="paint5_linear_638_1116" x1="0.9" x2="0.54" y1="1.5" y2="0.55">
   <stop stop-color="#FF1653"/>
   <stop offset="1" stop-color="#FF7A53"/>
  </linearGradient>
  <linearGradient id="paint6_linear_638_1116" x1="3.58" x2="0.74" y1="6.11" y2="0.72">
   <stop stop-color="#FF1653"/>
   <stop offset="1" stop-color="#FF7A53"/>
  </linearGradient>
  <linearGradient id="paint7_linear_638_1116" x1="3.58" x2="0.74" y1="6.11" y2="0.72">
   <stop stop-color="#FF1653"/>
   <stop offset="1" stop-color="#FF7A53"/>
  </linearGradient>
 </defs>
 <g class="layer">
  <title>Layer 1</title>
  <path d="m3.5,31.21c0,0 3.74,-4.14 9.61,-4.08c0,0 -0.3,-2.09 0.4,-3.74c0,0 -6.7,-1.72 -7.01,-9.37c0,0 -7.65,6.45 -3,17.19z" fill="url(#paint0_linear_638_1116)" id="svg_2">Snacks</path>
  <path d="m4.53,32.79c3.12,4.97 8.97,6.54 8.97,6.54l0.01,-0.13c-0.66,-3.69 2.64,-7.68 2.64,-7.68c-1.4,-0.87 -2.32,-2.56 -2.32,-2.56c-0.08,0.01 -0.15,0 -0.22,0c-5.48,0.01 -9.08,3.83 -9.08,3.83z" fill="url(#paint1_linear_638_1116)" id="svg_3">Snacks</path>
  <path d="m15.51,39.76c4.93,0.92 8.43,-1.1 8.43,-1.1c-2.68,-2.23 -2.82,-5.8 -2.82,-5.8c-2.16,0.06 -3.23,-0.47 -3.23,-0.47c-3.23,3.04 -2.38,7.37 -2.38,7.37z" fill="url(#paint2_linear_638_1116)" id="svg_4">Snacks</path>
  <path d="m24.91,32.22l-1.88,0.55c0,0 0,2.72 2.91,4.97c0,0 2.13,-1.41 2.26,-1.65c0,0 7.23,-1.84 7.8,-10.86c0,0 -1.58,0.06 -3.75,1.2l0.86,-3.9c0,0 -7.49,2.29 -8.2,9.69z" fill="url(#paint3_linear_638_1116)" id="svg_5">Snacks</path>
  <path d="m22.61,13.28c0,0.83 -0.68,1.5 -1.52,1.5c-0.85,0 -1.53,-0.67 -1.53,-1.5c0,-0.82 0.68,-1.49 1.53,-1.49c0.84,0 1.52,0.67 1.52,1.49z" fill="url(#paint4_linear_638_1116)" id="svg_6">Snacks</path>
  <path d="m24.98,5.03c-1.18,0.81 -2.47,1.6 -3.83,2.27c-1.37,0.67 -2.78,1.22 -4.17,1.57l-3.02,0.75c-0.69,0.18 -1.41,0.34 -2.1,0.5c-0.73,0.19 -2.32,0.68 -3.46,1.96c0,0 -1.08,5.35 3.76,8.75c0,0 1.87,1.37 5.28,1.05c1.54,-0.14 3.02,-0.6 4.38,-1.33c1.1,-0.61 2.65,-1.55 3.63,-2.55c0.09,-0.11 0.19,-0.2 0.28,-0.3c0.08,-0.06 0.17,-0.15 0.28,-0.27l6.17,-6.34c-0.37,-0.52 -1.12,-0.64 -1.65,-0.27l-3.38,2.33c0.36,-2.27 -1.33,-7.8 -1.33,-7.8c-0.1,-0.29 -0.37,-0.36 -0.58,-0.35c-0.15,0 -0.26,0.03 -0.26,0.03zm-6.88,8.24c-0.01,-1.61 1.34,-2.92 2.99,-2.93c1.64,0.01 2.98,1.32 2.97,2.93c0.01,1.61 -1.33,2.93 -2.98,2.93c-1.63,0 -2.98,-1.31 -2.98,-2.93z" fill="url(#paint5_linear_638_1116)" id="svg_7">Snacks</path>
  <path d="m22.61,13.28c0,0.83 -0.68,1.5 -1.52,1.5c-0.85,0 -1.53,-0.67 -1.53,-1.5c0,-0.82 0.68,-1.49 1.53,-1.49c0.84,0 1.52,0.67 1.52,1.49z" fill="url(#paint6_linear_638_1116)" id="svg_8">Snacks</path>
  <path d="m22.61,13.28c0,0.83 -0.68,1.5 -1.52,1.5c-0.85,0 -1.53,-0.67 -1.53,-1.5c0,-0.82 0.68,-1.49 1.53,-1.49c0.84,0 1.52,0.67 1.52,1.49z" fill="url(#paint7_linear_638_1116)" id="svg_9">Snacks</path>
  <text fill="#ffffff" font-family="Serif" font-size="8" id="svg_14" stroke-width="0" text-anchor="middle" transform="matrix(5.27404 0 0 2.61011 -263.886 -42.3376)" x="64.56" xml:space="preserve" y="23.69">Fruit</text>
  <text fill="#ffffff" font-family="Serif" font-size="8" id="svg_15" stroke-width="0" style="cursor: move;" text-anchor="middle" transform="matrix(2.09377 0 0 1.34995 -145.848 -15.0459)" x="114.43" xml:space="preserve" y="41.21">Snacks</text>
 </g>
</svg>
